packages/vapor/resources/icons/svg/mapping-extraction-literal.svg

<svg enable-background="new 0 0 16 16" viewBox="0 0 16 16" xmlns="http://www.w3.org/2000/svg"><path d="m16 14.3v-12.6c0-.9-.4-1.7-1.4-1.7h-3.1l-7.8 16h10.6c.9 0 1.7-.8 1.7-1.7z" fill="#565871"/><path d="m1.7 0c-.9 0-1.7.8-1.7 1.7v12.6c0 .9.8 1.7 1.7 1.7h3.9l7.8-16z" fill="#626882"/><g clip-rule="evenodd"><path d="m5.6 5.1-.8 1.9h1.6zm1.4 3.9-.3-1h-2.1l-.4 1h-1.2l2-5h1.3l1.9 5z" fill="#fff" fill-rule="evenodd"/><path d="m12 7.5c0-.3-.2-.5-.6-.5h-1.4v1h1.4c.4 0 .6-.1.6-.5zm0-2c0-.3-.2-.5-.6-.5h-1.4v1h1.3c.4 0 .7-.2.7-.5zm-3 3.5v-5h2.6c1 0 1.4.3 1.4 1 0 .6-.3.9-.8 1 .5.1 1 .6.9 1.5 0 .8-.2 1.5-1.1 1.5z" fill="#fff" fill-rule="evenodd"/><path d="m3.5 10.5h6.2" fill="none" stroke="#fff" stroke-linecap="round" stroke-linejoin="round" stroke-miterlimit="10"/><path d="m3.5 12.5h8.3" fill="none" stroke="#fff" stroke-linecap="round" stroke-linejoin="round" stroke-miterlimit="10"/></g></svg>

<svg version="1.1" id="Calque_1" xmlns="http://www.w3.org/2000/svg" xmlns:xlink="http://www.w3.org/1999/xlink"
	 viewBox="0 0 16 16" style="enable-background:new 0 0 16 16;" xml:space="preserve">
	<g>
		<path fill="#565871" d="M16,14.3V1.7C16,0.8,15.6,0,14.6,0h-3.1L3.7,16h10.6C15.2,16,16,15.2,16,14.3z"/>
		<path fill="#626882" d="M1.7,0C0.8,0,0,0.8,0,1.7v12.6C0,15.2,0.8,16,1.7,16h3.9l7.8-16H1.7z"/>
	</g>
	<path fill-rule="evenodd" clip-rule="evenodd" fill="#FFFFFF" d="M5.6,5.1L4.8,7h1.6L5.6,5.1z M7,9L6.7,8H4.6L4.2,9H3L5,4h1.3l1.9,5H7z"/>
	<path fill-rule="evenodd" clip-rule="evenodd" fill="#FFFFFF" d="M12,7.5C12,7.2,11.8,7,11.4,7H10v1h1.4C11.8,8,12,7.9,12,7.5z M12,5.5C12,5.2,11.8,5,11.4,5H10
		v1h1.3C11.7,6,12,5.8,12,5.5z M9,9V4h2.6C12.6,4,13,4.3,13,5c0,0.6-0.3,0.9-0.8,1c0.5,0.1,1,0.6,0.9,1.5C13.1,8.3,12.9,9,12,9H9z"
		/>
	<line fill-rule="evenodd" clip-rule="evenodd" fill="none" stroke="#FFFFFF" stroke-linecap="round" stroke-linejoin="round" stroke-miterlimit="10" x1="3.5" y1="10.5" x2="9.7" y2="10.5"/>
	<line fill-rule="evenodd" clip-rule="evenodd" fill="none" stroke="#FFFFFF" stroke-linecap="round" stroke-linejoin="round" stroke-miterlimit="10" x1="3.5" y1="12.5" x2="11.8" y2="12.5"/>
</svg>
